%
(Header)
(Generated by gcodetools from Inkscape.)
(Using default header. To add your own header create file "header" in the output dir.)
M3
(Header end.)
G21 (All units in mm)

(Start cutting path id: path5910)
(Change tool to Cylindrical cutter)

G00 Z5.000000
G00 X11.840734 Y12.374098

G01 Z-1.000000 F100.0(Penetrate)
G02 X11.707648 Y11.962184 Z-1.000000 I-0.214421 J-0.158179 F100.000000
G02 X11.298478 Y11.974074 Z-1.000000 I-0.187739 J0.585676
G02 X10.801512 Y12.669483 Z-1.000000 I0.279903 J0.725310
G02 X11.040685 Y13.458611 Z-1.000000 I1.261244 J0.048543
G02 X12.240226 Y14.055099 Z-1.000000 I1.169445 J-0.847374
G02 X13.467502 Y13.574172 Z-1.000000 I-0.039769 J-1.907890
G02 X14.177260 Y11.873585 Z-1.000000 I-1.408481 J-1.586249
G02 X13.440832 Y10.205074 Z-1.000000 I-2.573048 J0.138887
G02 X11.239682 Y9.377249 Z-1.000000 I-1.994367 J1.962639
G02 X9.129454 Y10.373975 Z-1.000000 I0.240143 J3.240627
G02 X8.181378 Y13.075595 Z-1.000000 I2.512807 J2.398979
G02 X9.440587 Y15.627635 Z-1.000000 I3.908390 J-0.341774
G02 X12.642665 Y16.697132 Z-1.000000 I2.801901 J-3.060635
G02 X15.636527 Y15.174271 Z-1.000000 I-0.443375 J-4.575964
G02 X16.828147 Y11.471722 Z-1.000000 I-3.607010 J-3.203901
G02 X15.040930 Y8.036049 Z-1.000000 I-5.243321 J0.544858
G02 X10.837897 Y6.721854 Z-1.000000 I-3.605345 J4.152416
G02 X6.960429 Y8.773877 Z-1.000000 I0.646220 J5.910497
G02 X5.523350 Y13.477409 Z-1.000000 I4.697168 J4.006438
G02 X7.840489 Y17.796660 Z-1.000000 I6.577522 J-0.747468
G02 X13.044533 Y19.356844 Z-1.000000 I4.407290 J-5.241433
G02 X17.805551 Y16.774369 Z-1.000000 I-0.848626 J-7.244428
G02 X19.489003 Y11.069803 Z-1.000000 I-5.785350 J-4.807975
G02 X16.641028 Y5.867025 Z-1.000000 I-7.911246 J0.949705
G00 Z5.000000

(End cutting path id: path5910)


(Footer)
M5
G00 X0.0000 Y0.0000
M2
(Using default footer. To add your own footer create file "footer" in the output dir.)
(end)
%