%
(Header)
(Generated by gcodetools from Inkscape.)
(Using default header. To add your own header create file "header" in the output dir.)
M3
(Header end.)
G21 (All units in mm)
(Tool diameter should be at least 10.0 mm)
(Depth, as a function of radius w, must be 10)
(Rapid feeds use safe Z=100.0 mm)
(Material surface at Z=0.0 mm)
(Change tool to Default tool)

G00 Z110.000000
G00 X39.569080 Y47.256926

G01 Z5.000010 F100.0(Penetrate)
G01 X42.242627 Y37.335658 Z10.000000 F400.000000
G01 X39.569080 Y47.256926 Z5.000010
G01 X42.176587 Y38.042032 Z9.554879
G01 X42.239043 Y40.071097 Z8.095508
G01 X42.325968 Y42.123925 Z6.602044
G01 X42.444501 Y44.207487 Z5.064498
G01 X41.506959 Y45.264098 Z5.000010
G01 X37.571906 Y49.310714 Z5.000010
G01 X33.789959 Y47.601294 Z8.903059
G01 X32.244566 Y48.066791 Z9.686479
G01 X31.474354 Y49.286132 Z9.388566
G01 X30.672956 Y50.475106 Z9.134199
G01 X29.798970 Y51.593525 Z8.981037
G01 X28.003472 Y53.784133 Z8.741063
G01 X27.054189 Y54.829315 Z8.692972
G01 X26.078124 Y55.848448 Z8.682220
G01 X24.018551 Y57.782235 Z8.810631
G01 X22.988750 Y58.749128 Z8.874808
G01 X21.951668 Y59.708937 Z8.949174
G01 X19.782564 Y61.536213 Z9.230352
G01 X19.394509 Y61.863111 Z9.280644
G01 X15.894332 Y64.430656 Z10.000000
G01 X19.394509 Y61.863111 Z9.280644
G01 X15.933561 Y64.401870 Z9.991928
G01 X18.241095 Y62.709214 Z9.517682
G01 X19.394509 Y61.863111 Z9.280644
G01 X19.664229 Y61.635923 Z9.245676
G01 X20.748780 Y60.722256 Z9.105102
G01 X22.095940 Y59.587413 Z8.930462
G01 X22.209591 Y59.480704 Z8.923379
G01 X24.269164 Y57.546918 Z8.794996
G01 X25.298965 Y56.580024 Z8.730790
G01 X26.408041 Y55.538681 Z8.661674
G01 X26.704883 Y55.212799 Z8.676039
G01 X27.978608 Y53.814444 Z8.737761
G01 X28.320153 Y53.397771 Z8.783396
G01 X29.217902 Y52.302467 Z8.903369
G01 X30.449266 Y50.800141 Z9.067961
G01 X30.447488 Y50.802738 Z9.067425
G01 X31.286704 Y49.583199 Z9.315978
G01 X31.470092 Y49.292905 Z9.386900
G01 X32.424427 Y47.782057 Z9.756047
G01 X32.678483 Y47.268017 Z9.932267
G01 X32.748700 Y47.256249 Z10.000000
G01 X32.678483 Y47.268017 Z9.932267
G01 X31.920886 Y47.394707 Z9.201311
G01 X28.299833 Y47.681783 Z5.854184
G01 X26.892194 Y46.821880 Z5.000010
G01 X25.593746 Y44.316086 Z5.000010
G01 X25.100167 Y42.982529 Z5.175298
G01 X25.506765 Y39.593238 Z7.095679
G01 X25.710049 Y37.898578 Z8.055856
G01 X25.862224 Y36.630300 Z8.774450
G01 X25.837360 Y36.561042 Z8.838712
G01 X25.862224 Y36.630300 Z8.774450
G01 X25.842525 Y36.575436 Z8.825335
G01 X25.663003 Y38.290811 Z7.833606
G01 X25.256405 Y41.680130 Z5.913253
G01 X25.017702 Y43.343943 Z5.000010
G01 X20.381976 Y48.662844 Z5.000010
G01 X20.315061 Y48.739609 Z5.000010
G01 X15.254281 Y46.936237 Z10.000000
G01 X20.315061 Y48.739609 Z5.000010
G01 X16.506529 Y47.382458 Z8.762794
G01 X20.139660 Y48.677125 Z5.173294
G01 X20.358354 Y50.081914 Z5.000010
G01 X20.403848 Y51.492291 Z5.000010
G01 X20.492297 Y54.234109 Z5.000010
G01 X20.169293 Y55.267663 Z5.000010
G01 X19.667615 Y56.589281 Z5.084648
G01 X17.892381 Y58.991359 Z6.062605
G01 X16.913493 Y60.163851 Z6.647200
G01 X15.921934 Y61.332393 Z7.245088
G01 X14.999575 Y62.419400 Z7.801207
G01 X14.943413 Y62.510529 Z7.857369
G01 X14.597691 Y63.186621 Z8.203091
G01 X14.384274 Y63.625787 Z8.288858
G01 X14.137386 Y65.022448 Z8.146082
G01 X14.456777 Y66.579383 Z7.414760
G01 X15.342503 Y68.296593 Z6.094891
G01 X16.011737 Y69.952532 Z5.000010
G01 X15.477970 Y71.267998 Z5.155345
G01 X11.996279 Y73.215698 Z7.975056
G01 X11.005030 Y73.770208 Z8.777837
G01 X10.493502 Y73.943013 Z9.222958
G01 X11.005030 Y73.770208 Z8.777837
G01 X10.809139 Y73.954189 Z9.008074
G01 X12.574891 Y72.892017 Z7.506454
G01 X14.315722 Y71.918181 Z6.096613
G01 X15.971548 Y71.245815 Z5.000010
G01 X18.687796 Y72.011936 Z5.000010
G01 X18.849368 Y72.228061 Z5.164150
G01 X18.825718 Y73.809437 Z6.692581
G01 X18.849368 Y72.228061 Z5.164150
G01 X19.465883 Y74.559951 Z7.536510
G01 X19.662055 Y71.663984 Z5.000010
G01 X41.365594 Y61.445225 Z5.000010
G01 X42.236842 Y61.035015 Z5.000010
G01 X46.082853 Y64.750668 Z10.000000
G01 X42.236842 Y61.035015 Z5.000010
G01 X45.166675 Y63.865563 Z8.808938
G01 X42.305506 Y61.101337 Z5.089249
G01 X42.780232 Y59.769502 Z5.000010
G01 X43.451131 Y58.207007 Z5.000010
G01 X43.508507 Y58.045096 Z5.000010
G01 X45.393977 Y52.724897 Z5.000010
G01 X45.950040 Y51.155883 Z5.000010
G01 X46.103145 Y50.675061 Z5.000010
G01 X46.636489 Y49.000156 Z5.000010
G01 X46.599207 Y49.172622 Z5.000010
G01 X46.919727 Y47.798200 Z5.022926
G01 X49.211795 Y46.896923 Z7.072848
G01 X50.001565 Y46.454286 Z7.793671
G01 X51.457578 Y45.477402 Z9.270089
G01 X51.457578 Y45.477402 Z9.270089
G01 X51.437315 Y45.491005 Z9.249543
G01 X48.883627 Y47.065241 Z6.787634
G01 X48.133367 Y47.345233 Z6.113490
G01 X46.336402 Y47.389345 Z5.000010
G01 X45.078509 Y46.445960 Z5.000010
G01 X44.581544 Y46.039335 Z5.000010
G01 X43.489400 Y45.145763 Z5.000010
G01 X42.443795 Y44.195323 Z5.073472
G01 X42.274264 Y41.214689 Z7.273028
G01 X42.249683 Y40.416875 Z7.846814
G01 X42.163831 Y37.628012 Z9.852652
G01 X39.569080 Y47.256926 Z5.000010
G00 Z110.000000


(Footer)
M5
G00 X0.0000 Y0.0000
M2
(Using default footer. To add your own footer create file "footer" in the output dir.)
(end)
%