;Generated with Cura_SteamEngine 13.12
M140 S110.000000
M109 T0 S230.000000
T0
M190 S110.000000
;Sliced at: Fri 18-04-2014 16:33:34
;Basic settings: Layer height: 0.2 Walls: 4 Fill: 100
;Print time: #P_TIME#
;Filament used: #F_AMNT#m #F_WGHT#g
;Filament cost: #F_COST#
;M190 S110 ;Uncomment to add your own bed temperature line
;M109 S230 ;Uncomment to add your own temperature line
G21        ;metric values
G90        ;absolute positioning
M107       ;start with the fan off
G28 X0 Y0  ;move X/Y to min endstops
G28 Z0     ;move Z to min endstops
G1 Z15.0 F6000 ;move the platform down 15mm
G92 E0                  ;zero the extruded length
G1 F200 E3              ;extrude 3mm of feed stock
G92 E0                  ;zero the extruded length again
G1 F6000
;Put printing message on LCD screen
M117 Printing...

;Layer count: 50
;LAYER:0
M107
G0 F4800 X45.05 Y48.44 Z0.20
;TYPE:SKIRT
G1 F4800 E0.00000
G1 F2400 X75.70 Y48.44 E0.79724
G1 X77.57 Y50.31 E0.86619
G1 X77.57 Y110.97 E2.44371
G1 X75.70 Y112.84 E2.51268
G1 X45.05 Y112.84 E3.30992
G1 X43.17 Y110.97 E3.37887
G1 X43.17 Y50.31 E4.95639
G1 X45.05 Y48.44 E5.02532
G0 F4800 X77.72 Y48.32
G1 F2400 X77.82 Y47.76 E5.04004
G1 X78.03 Y47.19 E5.05584
G1 X78.20 Y46.85 E5.06595
G1 X78.48 Y46.43 E5.07902
G1 X78.81 Y46.08 E5.09141
G1 X79.35 Y45.65 E5.10948
G1 X79.82 Y45.38 E5.12357
G1 X80.31 Y45.21 E5.13704
G1 X80.58 Y45.14 E5.14442
G1 X80.96 Y45.08 E5.15428
G1 X81.29 Y45.06 E5.16280
G1 X81.39 Y45.06 E5.16553
G1 X84.85 Y45.04 E5.25540
G1 X84.98 Y44.59 E5.26749
G1 X85.13 Y44.25 E5.27726
G1 X85.43 Y43.73 E5.29279
G1 X85.59 Y43.50 E5.30025
G1 X85.97 Y43.05 E5.31544
G1 X86.23 Y42.81 E5.32451
G1 X86.77 Y42.40 E5.34217
G1 X87.03 Y42.24 E5.35001
G1 X87.42 Y42.05 E5.36160
G1 X87.65 Y41.96 E5.36781
G1 X88.13 Y41.80 E5.38095
G1 X88.36 Y41.75 E5.38723
G1 X88.74 Y41.69 E5.39708
G1 X88.90 Y41.67 E5.40140
G1 X89.14 Y41.66 E5.40757
G1 X89.27 Y41.65 E5.41101
G1 X89.34 Y41.66 E5.41278
G1 X95.43 Y41.65 E5.57115
G1 X95.48 Y41.66 E5.57253
G1 X95.49 Y41.65 E5.57284
G1 X95.87 Y41.67 E5.58258
G1 X96.05 Y41.70 E5.58747
G1 X96.10 Y41.71 E5.58880
G1 X96.49 Y41.78 E5.59897
G1 X97.04 Y41.96 E5.61402
G1 X97.26 Y42.05 E5.62018
G1 X97.63 Y42.23 E5.63107
G1 X97.85 Y42.36 E5.63754
G1 X98.29 Y42.67 E5.65164
G1 X98.52 Y42.87 E5.65955
G1 X98.89 Y43.26 E5.67344
G1 X99.04 Y43.43 E5.67951
G1 X99.30 Y43.80 E5.69113
G1 X99.45 Y44.06 E5.69911
G1 X99.73 Y44.67 E5.71646
G1 X99.83 Y44.97 E5.72483
G1 X99.86 Y45.06 E5.72718
G1 X103.26 Y45.06 E5.81567
G1 X103.41 Y45.06 E5.81973
G1 X103.84 Y45.09 E5.83090
G1 X104.42 Y45.22 E5.84630
G1 X104.86 Y45.39 E5.85850
G1 X105.37 Y45.67 E5.87373
G1 X105.73 Y45.95 E5.88546
G1 X106.11 Y46.33 E5.89956
G1 X106.36 Y46.66 E5.91045
G1 X106.62 Y47.13 E5.92430
G1 X106.77 Y47.48 E5.93416
G1 X106.87 Y47.83 E5.94369
G1 X106.92 Y48.07 E5.95009
G1 X106.96 Y48.39 E5.95845
G1 X106.98 Y48.59 E5.96379
G1 X106.95 Y65.54 E6.40456
G1 X106.73 Y66.34 E6.42612
G1 X106.40 Y66.94 E6.44396
G1 X106.24 Y67.16 E6.45110
G1 X106.00 Y67.46 E6.46102
G1 X105.98 Y67.48 E6.46174
G1 X105.97 Y72.83 E6.60108
G1 X105.95 Y73.10 E6.60813
G1 X105.87 Y73.59 E6.62092
G1 X105.75 Y73.98 E6.63145
G1 X105.59 Y74.34 E6.64182
G1 X105.45 Y74.59 E6.64925
G1 X105.17 Y74.99 E6.66192
G1 X104.85 Y75.34 E6.67420
G1 X104.34 Y75.75 E6.69129
G1 X103.85 Y76.02 E6.70583
G1 X103.24 Y76.22 E6.72261
G1 X102.85 Y76.31 E6.73295
G1 X102.54 Y76.33 E6.74106
G1 X102.41 Y76.33 E6.74439
G1 X100.63 Y76.33 E6.79067
G1 X98.90 Y74.99 E6.84777
G1 X98.40 Y73.03 E6.90043
G1 X98.12 Y72.29 E6.92082
G1 X97.74 Y71.60 E6.94125
G1 X97.29 Y70.96 E6.96169
G1 X96.77 Y70.39 E6.98191
G1 X96.14 Y69.84 E7.00358
G1 X95.86 Y69.65 E7.01242
G1 X95.51 Y69.44 E7.02291
G1 X95.22 Y69.28 E7.03148
G1 X94.41 Y68.93 E7.05450
G1 X94.13 Y68.85 E7.06206
G1 X93.27 Y68.66 E7.08509
G1 X92.93 Y68.61 E7.09392
G1 X92.53 Y68.59 E7.10424
G1 X92.22 Y68.59 E7.11241
G1 X91.75 Y68.62 E7.12473
G1 X91.42 Y68.66 E7.13340
G1 X90.55 Y68.85 E7.15638
G1 X90.22 Y68.95 E7.16560
G1 X89.91 Y69.07 E7.17405
G1 X89.12 Y69.46 E7.19698
G1 X88.87 Y69.62 E7.20478
G1 X88.22 Y70.11 E7.22578
G1 X87.91 Y70.39 E7.23686
G1 X87.64 Y70.67 E7.24694
G1 X87.38 Y70.96 E7.25700
G1 X87.18 Y71.23 E7.26584
G1 X86.74 Y71.94 E7.28747
G1 X86.40 Y72.69 E7.30892
G1 X86.28 Y73.02 E7.31802
G1 X86.16 Y73.47 E7.33011
G1 X85.83 Y74.92 E7.36871
G1 X84.11 Y76.32 E7.42654
G1 X82.91 Y76.33 E7.45773
G1 X82.88 Y76.33 E7.45836
G1 X82.17 Y76.33 E7.47677
G1 X81.86 Y76.30 E7.48506
G1 X81.35 Y76.20 E7.49865
G1 X81.00 Y76.08 E7.50820
G1 X80.62 Y75.91 E7.51899
G1 X80.27 Y75.69 E7.52965
G1 X79.81 Y75.32 E7.54501
G1 X79.52 Y75.00 E7.55624
G1 X79.27 Y74.66 E7.56736
G1 X79.14 Y74.43 E7.57424
G1 X78.97 Y74.08 E7.58424
G1 X78.85 Y73.74 E7.59367
G1 X78.75 Y73.32 E7.60482
G1 X78.72 Y73.04 E7.61210
G1 X78.71 Y72.83 E7.61772
G1 X78.70 Y72.75 E7.61962
G1 X78.68 Y67.44 E7.75774
G1 X78.44 Y67.18 E7.76708
G1 X78.19 Y66.79 E7.77905
G1 X77.91 Y66.19 E7.79642
G1 X77.77 Y65.70 E7.80950
G1 X77.72 Y65.27 E7.82098
G1 X77.70 Y65.07 E7.82614
G1 X77.72 Y48.32 E8.26170
G0 F4800 X107.99 Y49.30
G1 F2400 X109.86 Y47.42 E8.33064
G1 X140.51 Y47.42 E9.12788
G1 X142.39 Y49.30 E9.19683
G1 X142.39 Y109.95 E10.77434
G1 X140.51 Y111.82 E10.84331
G1 X109.86 Y111.82 E11.64055
G1 X108.15 Y110.11 E11.70340
G1 X108.15 Y110.41 E11.71110
G1 X108.01 Y111.07 E11.72856
G1 X107.81 Y111.52 E11.74150
G1 X107.71 Y111.71 E11.74710
G1 X107.58 Y111.91 E11.75309
G1 X107.51 Y112.02 E11.75670
G1 X107.36 Y112.22 E11.76316
G1 X107.19 Y112.41 E11.76963
G1 X106.94 Y112.66 E11.77900
G1 X106.65 Y112.88 E11.78845
G1 X106.16 Y113.17 E11.80323
G1 X105.75 Y113.35 E11.81497
G1 X105.32 Y113.47 E11.82656
G1 X105.04 Y113.52 E11.83379
G1 X104.77 Y113.54 E11.84103
G1 X104.62 Y113.55 E11.84472
G1 X102.84 Y113.55 E11.89120
G1 X101.10 Y112.20 E11.94831
G1 X100.60 Y110.24 E12.00097
G1 X100.32 Y109.51 E12.02136
G1 X99.93 Y108.77 E12.04302
G1 X99.76 Y108.52 E12.05083
G1 X99.21 Y107.84 E12.07357
G1 X99.01 Y107.63 E12.08127
G1 X98.34 Y107.06 E12.10416
G1 X98.06 Y106.86 E12.11295
G1 X97.71 Y106.65 E12.12362
G1 X97.43 Y106.49 E12.13204
G1 X96.61 Y106.15 E12.15506
G1 X96.34 Y106.06 E12.16265
G1 X95.47 Y105.87 E12.18562
G1 X95.13 Y105.83 E12.19451
G1 X94.74 Y105.80 E12.20480
G1 X94.42 Y105.80 E12.21297
G1 X93.95 Y105.83 E12.22532
G1 X93.58 Y105.87 E12.23512
G1 X93.23 Y105.94 E12.24435
G1 X92.38 Y106.18 E12.26723
G1 X92.12 Y106.28 E12.27462
G1 X91.33 Y106.68 E12.29764
G1 X91.03 Y106.86 E12.30665
G1 X90.75 Y107.06 E12.31550
G1 X90.08 Y107.63 E12.33839
G1 X89.84 Y107.88 E12.34737
G1 X89.59 Y108.18 E12.35768
G1 X89.39 Y108.44 E12.36635
G1 X88.95 Y109.15 E12.38804
G1 X88.62 Y109.85 E12.40808
G1 X88.35 Y110.73 E12.43207
G1 X88.04 Y112.13 E12.46925
G1 X86.31 Y113.53 E12.52709
G1 X85.11 Y113.55 E12.55827
G1 X85.09 Y113.55 E12.55890
G1 X84.62 Y113.55 E12.57102
G1 X84.48 Y113.55 E12.57461
G1 X84.08 Y113.52 E12.58510
G1 X83.52 Y113.41 E12.60010
G1 X83.06 Y113.24 E12.61263
G1 X82.58 Y112.97 E12.62713
G1 X82.25 Y112.74 E12.63749
G1 X81.83 Y112.35 E12.65241
G1 X81.53 Y111.95 E12.66548
G1 X81.25 Y111.46 E12.68006
G1 X81.11 Y111.13 E12.68929
G1 X81.02 Y110.79 E12.69858
G1 X80.96 Y110.54 E12.70520
G1 X80.92 Y110.22 E12.71354
G1 X80.91 Y110.03 E12.71862
G1 X80.89 Y104.66 E12.85837
G1 X80.75 Y104.50 E12.86379
G1 X80.54 Y104.22 E12.87286
G1 X80.26 Y103.74 E12.88733
G1 X80.09 Y103.33 E12.89886
G1 X79.98 Y102.91 E12.91027
G1 X79.93 Y102.64 E12.91737
G1 X79.91 Y102.38 E12.92423
G1 X79.91 Y102.25 E12.92762
G1 X79.92 Y85.54 E13.36214
G1 X80.02 Y84.99 E13.37656
G1 X80.22 Y84.42 E13.39234
G1 X80.40 Y84.07 E13.40273
G1 X80.64 Y83.71 E13.41389
G1 X80.85 Y83.47 E13.42209
G1 X81.15 Y83.17 E13.43311
G1 X81.41 Y82.96 E13.44179
G1 X81.82 Y82.70 E13.45455
G1 X82.25 Y82.51 E13.46675
G1 X82.75 Y82.36 E13.48035
G1 X83.00 Y82.31 E13.48701
G1 X83.27 Y82.28 E13.49408
G1 X83.53 Y82.27 E13.50070
G1 X83.60 Y82.28 E13.50260
G1 X87.04 Y82.25 E13.59194
G1 X87.05 Y82.21 E13.59309
G1 X87.13 Y81.95 E13.60016
G1 X87.35 Y81.42 E13.61507
G1 X87.52 Y81.12 E13.62413
G1 X87.91 Y80.57 E13.64160
G1 X88.10 Y80.35 E13.64913
G1 X88.42 Y80.03 E13.66084
G1 X88.62 Y79.87 E13.66746
G1 X89.04 Y79.57 E13.68091
G1 X89.25 Y79.45 E13.68739
G1 X89.63 Y79.26 E13.69828
G1 X89.85 Y79.17 E13.70444
G1 X90.33 Y79.02 E13.71758
G1 X90.57 Y78.96 E13.72390
G1 X90.94 Y78.90 E13.73383
G1 X91.11 Y78.88 E13.73812
G1 X91.34 Y78.87 E13.74427
G1 X91.47 Y78.87 E13.74770
G1 X91.54 Y78.87 E13.74947
G1 X97.63 Y78.87 E13.90785
G1 X97.69 Y78.87 E13.90925
G1 X97.70 Y78.87 E13.90956
G1 X98.07 Y78.89 E13.91936
G1 X98.25 Y78.92 E13.92411
G1 X98.31 Y78.92 E13.92544
G1 X98.69 Y78.99 E13.93558
G1 X99.24 Y79.17 E13.95065
G1 X99.46 Y79.26 E13.95686
G1 X99.84 Y79.45 E13.96777
G1 X100.05 Y79.57 E13.97424
G1 X100.49 Y79.89 E13.98834
G1 X100.72 Y80.08 E13.99625
G1 X101.11 Y80.49 E14.01084
G1 X101.29 Y80.71 E14.01833
G1 X101.59 Y81.16 E14.03233
G1 X101.72 Y81.39 E14.03905
G1 X101.90 Y81.80 E14.05081
G1 X102.00 Y82.07 E14.05842
G1 X102.05 Y82.28 E14.06380
G1 X105.69 Y82.28 E14.15858
G1 X105.99 Y82.30 E14.16629
G1 X106.46 Y82.39 E14.17870
G1 X106.78 Y82.49 E14.18736
G1 X107.17 Y82.65 E14.19848
G1 X107.55 Y82.87 E14.20978
G1 X107.99 Y83.21 E14.22434
G1 X107.99 Y49.30 E15.10650
G1 F4800 E14.10650
G0 X70.57 Y55.44
;TYPE:WALL-INNER
G1 F4800 E15.10650
G1 F2400 X70.57 Y101.66 E16.30867
G1 X69.93 Y101.51 E16.32593
G1 X69.68 Y101.47 E16.33246
G1 X69.09 Y101.44 E16.34763
G1 X68.73 Y101.45 E16.35721
G1 X67.91 Y101.57 E16.37859
G1 X67.53 Y101.67 E16.38902
G1 X66.89 Y101.92 E16.40692
G1 X66.11 Y102.36 E16.43005
G1 X65.53 Y102.83 E16.44952
G1 X64.96 Y103.45 E16.47141
G1 X64.75 Y103.75 E16.48097
G1 X64.42 Y104.31 E16.49779
G1 X64.26 Y104.65 E16.50754
G1 X64.06 Y105.26 E16.52439
G1 X63.97 Y105.62 E16.53402
G1 X63.94 Y105.84 E16.53974
G1 X56.80 Y105.84 E16.72534
G1 X56.70 Y105.31 E16.73936
G1 X56.54 Y104.81 E16.75305
G1 X56.39 Y104.46 E16.76295
G1 X56.04 Y103.81 E16.78215
G1 X55.83 Y103.51 E16.79160
G1 X55.40 Y103.01 E16.80882
G1 X54.97 Y102.62 E16.82381
G1 X54.60 Y102.34 E16.83601
G1 X54.12 Y102.05 E16.85048
G1 X53.51 Y101.78 E16.86801
G1 X53.05 Y101.62 E16.88063
G1 X52.31 Y101.48 E16.90027
G1 X51.87 Y101.44 E16.91158
G1 X51.56 Y101.44 E16.91967
G1 X50.76 Y101.52 E16.94071
G1 X50.17 Y101.66 E16.95639
G1 X50.17 Y55.44 E18.15856
G1 X70.57 Y55.44 E18.68916
G0 F4800 X68.42 Y57.92
G1 F2400 X67.97 Y57.56 E18.70425
G1 X67.61 Y57.33 E18.71545
G1 X67.00 Y57.03 E18.73306
G1 X66.31 Y56.80 E18.75191
G1 X65.76 Y56.69 E18.76642
G1 X65.19 Y56.64 E18.78148
G1 X64.57 Y56.66 E18.79759
G1 X64.02 Y56.75 E18.81205
G1 X63.21 Y56.99 E18.83394
G1 X62.86 Y57.15 E18.84391
G1 X62.27 Y57.50 E18.86174
G1 X61.98 Y57.71 E18.87105
G1 X61.61 Y58.03 E18.88389
G1 X61.38 Y58.26 E18.89222
G1 X61.04 Y58.68 E18.90645
G1 X60.87 Y58.93 E18.91433
G1 X60.62 Y59.36 E18.92729
G1 X60.46 Y59.71 E18.93713
G1 X60.37 Y59.95 E18.94392
G1 X60.24 Y59.59 E18.95412
G1 X60.03 Y59.19 E18.96582
G1 X59.46 Y58.37 E18.99186
G1 X59.21 Y58.10 E19.00136
G1 X59.02 Y57.92 E19.00813
G1 X58.57 Y57.56 E19.02322
G1 X58.20 Y57.33 E19.03441
G1 X57.60 Y57.03 E19.05202
G1 X56.91 Y56.80 E19.07088
G1 X56.36 Y56.69 E19.08538
G1 X55.79 Y56.64 E19.10044
G1 X55.17 Y56.66 E19.11656
G1 X54.62 Y56.75 E19.13101
G1 X53.81 Y56.99 E19.15290
G1 X53.46 Y57.15 E19.16288
G1 X52.87 Y57.50 E19.18070
G1 X52.58 Y57.71 E19.19002
G1 X52.21 Y58.03 E19.20285
G1 X51.98 Y58.26 E19.21118
G1 X51.64 Y58.68 E19.22541
G1 X51.47 Y58.93 E19.23330
G1 X51.22 Y59.36 E19.24626
G1 X51.06 Y59.71 E19.25609
G1 X50.84 Y60.36 E19.27409
G1 X50.75 Y60.73 E19.28394
G1 X50.68 Y61.33 E19.29965
G1 X50.67 Y61.66 E19.30811
G1 X50.68 Y61.98 E19.31649
G1 X50.78 Y62.70 E19.33528
G1 X50.91 Y63.17 E19.34818
G1 X51.20 Y63.90 E19.36850
G1 X51.42 Y64.28 E19.37986
G1 X51.81 Y64.83 E19.39737
G1 X52.10 Y65.15 E19.40874
G1 X52.69 Y65.66 E19.42913
G1 X53.11 Y65.94 E19.44211
G1 X53.75 Y66.25 E19.46059
G1 X54.42 Y66.48 E19.47921
G1 X55.18 Y66.62 E19.49912
G1 X55.56 Y66.64 E19.50892
G1 X56.18 Y66.62 E19.52514
G1 X57.11 Y66.43 E19.54992
G1 X57.53 Y66.29 E19.56145
G1 X57.88 Y66.13 E19.57142
G1 X58.53 Y65.75 E19.59102
G1 X58.92 Y65.45 E19.60387
G1 X59.47 Y64.90 E19.62388
G1 X59.73 Y64.57 E19.63490
G1 X60.10 Y63.98 E19.65312
G1 X60.31 Y63.51 E19.66635
G1 X60.37 Y63.33 E19.67146
G1 X60.60 Y63.90 E19.68750
G1 X60.82 Y64.28 E19.69886
G1 X61.21 Y64.83 E19.71636
G1 X61.50 Y65.15 E19.72774
G1 X62.09 Y65.66 E19.74813
G1 X62.51 Y65.94 E19.76111
G1 X63.15 Y66.25 E19.77959
G1 X63.83 Y66.48 E19.79820
G1 X64.58 Y66.62 E19.81812
G1 X64.95 Y66.64 E19.82792
G1 X65.58 Y66.62 E19.84414
G1 X66.51 Y66.43 E19.86892
G1 X66.93 Y66.29 E19.88045
G1 X67.28 Y66.13 E19.89042
G1 X67.93 Y65.75 E19.91002
G1 X68.32 Y65.45 E19.92287
G1 X68.87 Y64.90 E19.94288
G1 X69.13 Y64.57 E19.95389
G1 X69.50 Y63.98 E19.97212
G1 X69.71 Y63.51 E19.98535
G1 X69.96 Y62.69 E20.00782
G1 X70.04 Y62.26 E20.01916
G1 X70.07 Y61.66 E20.03466
G1 X70.07 Y61.37 E20.04233
G1 X70.04 Y61.08 E20.04998
G1 X69.94 Y60.49 E20.06552
G1 X69.83 Y60.08 E20.07656
G1 X69.54 Y59.39 E20.09591
G1 X69.33 Y59.01 E20.10737
G1 X68.84 Y58.35 E20.12876
G1 X68.42 Y57.92 E20.14423
G0 F4800 X68.15 Y58.23
G1 F2400 X67.73 Y57.88 E20.15837
G1 X67.41 Y57.67 E20.16839
G1 X66.83 Y57.39 E20.18499
G1 X66.58 Y57.29 E20.19201
G1 X66.03 Y57.14 E20.20701
G1 X65.71 Y57.08 E20.21549
G1 X65.17 Y57.04 E20.22943
G1 X64.60 Y57.06 E20.24426
G1 X63.90 Y57.19 E20.26285
G1 X63.36 Y57.37 E20.27762
G1 X63.05 Y57.51 E20.28656
G1 X62.49 Y57.83 E20.30335
G1 X62.23 Y58.02 E20.31173
G1 X61.68 Y58.53 E20.33105
G1 X61.36 Y58.92 E20.34443
G1 X61.20 Y59.15 E20.35148
G1 X60.97 Y59.55 E20.36349
G1 X60.83 Y59.85 E20.37229
G1 X60.62 Y60.47 E20.38924
G1 X60.54 Y60.80 E20.39808
G1 X60.48 Y61.36 E20.41256
G1 X60.47 Y61.66 E20.42037
G1 X60.48 Y61.94 E20.42787
G1 X60.57 Y62.62 E20.44553
G1 X60.69 Y63.05 E20.45705
G1 X60.97 Y63.72 E20.47607
G1 X61.16 Y64.06 E20.48627
G1 X61.52 Y64.57 E20.50258
G1 X61.78 Y64.86 E20.51278
G1 X62.34 Y65.35 E20.53188
G1 X62.71 Y65.59 E20.54345
G1 X63.31 Y65.89 E20.56086
G1 X63.92 Y66.09 E20.57774
G1 X64.44 Y66.20 E20.59148
G1 X64.97 Y66.24 E20.60523
G1 X65.54 Y66.22 E20.62012
G1 X66.24 Y66.09 E20.63849
G1 X66.78 Y65.91 E20.65348
G1 X67.10 Y65.77 E20.66242
G1 X67.71 Y65.42 E20.68081
G1 X68.06 Y65.15 E20.69231
G1 X68.57 Y64.64 E20.71107
G1 X68.80 Y64.34 E20.72090
G1 X69.15 Y63.79 E20.73786
G1 X69.34 Y63.37 E20.74972
G1 X69.57 Y62.59 E20.77088
G1 X69.64 Y62.21 E20.78103
G1 X69.67 Y61.66 E20.79531
G1 X69.67 Y61.39 E20.80238
G1 X69.64 Y61.13 E20.80923
G1 X69.55 Y60.58 E20.82379
G1 X69.45 Y60.21 E20.83366
G1 X69.18 Y59.56 E20.85186
G1 X68.99 Y59.22 E20.86210
G1 X68.53 Y58.61 E20.88185
G1 X68.15 Y58.23 E20.89594
G0 F4800 X70.97 Y55.04
G1 F2400 X70.97 Y102.23 E22.12336
G1 X70.43 Y102.03 E22.13845
G1 X69.86 Y101.90 E22.15355
G1 X69.64 Y101.87 E22.15940
G1 X69.09 Y101.84 E22.17374
G1 X68.76 Y101.85 E22.18230
G1 X68.00 Y101.96 E22.20218
G1 X67.34 Y102.16 E22.22016
G1 X66.76 Y102.43 E22.23692
G1 X66.00 Y102.95 E22.26077
G1 X65.80 Y103.12 E22.26766
G1 X65.27 Y103.70 E22.28797
G1 X65.08 Y103.97 E22.29654
G1 X64.78 Y104.49 E22.31233
G1 X64.64 Y104.80 E22.32109
G1 X64.44 Y105.37 E22.33689
G1 X64.36 Y105.69 E22.34550
G1 X64.29 Y106.24 E22.35981
G1 X56.46 Y106.24 E22.56349
G1 X56.32 Y105.42 E22.58524
G1 X56.17 Y104.95 E22.59797
G1 X56.03 Y104.63 E22.60689
G1 X55.70 Y104.02 E22.62507
G1 X55.51 Y103.76 E22.63349
G1 X55.11 Y103.29 E22.64943
G1 X54.63 Y102.86 E22.66611
G1 X54.11 Y102.51 E22.68262
G1 X53.65 Y102.26 E22.69624
G1 X53.07 Y102.05 E22.71218
G1 X52.26 Y101.88 E22.73371
G1 X51.86 Y101.84 E22.74434
G1 X51.58 Y101.84 E22.75160
G1 X50.83 Y101.91 E22.77117
G1 X50.15 Y102.09 E22.78933
G1 X49.77 Y102.23 E22.79992
G1 X49.77 Y55.04 E24.02736
G1 X70.97 Y55.04 E24.57878
G0 F4800 X59.87 Y59.75
G1 F2400 X59.69 Y59.39 E24.58926
G1 X59.32 Y58.84 E24.60628
G1 X59.15 Y58.63 E24.61341
G1 X58.92 Y58.38 E24.62216
G1 X58.33 Y57.88 E24.64236
G1 X58.01 Y57.67 E24.65238
G1 X57.44 Y57.39 E24.66898
G1 X57.18 Y57.29 E24.67601
G1 X56.63 Y57.14 E24.69101
G1 X56.31 Y57.08 E24.69948
G1 X55.77 Y57.04 E24.71342
G1 X55.20 Y57.06 E24.72825
G1 X54.50 Y57.19 E24.74684
G1 X53.96 Y57.37 E24.76161
G1 X53.65 Y57.51 E24.77055
